src/images/twiter-icon.svg

<?xml version="1.0" encoding="UTF-8"?>
<svg width="24px" height="24px" viewBox="0 0 24 24" version="1.1" xmlns="http://www.w3.org/2000/svg" xmlns:xlink="http://www.w3.org/1999/xlink">
    <!-- Generator: Sketch 52.1 (67048) - http://www.bohemiancoding.com/sketch -->
    <title>twiter-icon</title>
    <desc>Created with Sketch.</desc>
    <g id="Progress" stroke="none" stroke-width="1" fill="none" fill-rule="evenodd">
        <g id="Homepage--/-Layout" transform="translate(-123.000000, -7818.000000)">
            <g id="footer-bottom" transform="translate(0.000000, 7782.000000)">
                <g id="social" transform="translate(123.000000, 36.000000)">
                    <g id="twiter-icon">
                        <path d="M12,0 C18.62742,0 24,5.37258 24,12 C24,18.62742 18.62742,24 12,24 C5.37258,24 0,18.62742 0,12 C0,5.37258 5.37258,0 12,0" id="Fill-1" fill="#1DA1F2"></path>
                        <path d="M9.91800766,18 C15.3555556,18 18.3287356,13.613089 18.3287356,9.81109948 C18.3287356,9.68575916 18.3287356,9.56041885 18.3226054,9.44104712 C18.8988506,9.03518325 19.4015326,8.5278534 19.8,7.94890052 C19.2727969,8.17570681 18.702682,8.33089005 18.1019157,8.40251309 C18.7149425,8.04439791 19.1808429,7.48335079 19.4015326,6.80890052 C18.8314176,7.13717277 18.2,7.37591623 17.5256705,7.50722513 C16.9862069,6.94617801 16.2199234,6.6 15.3678161,6.6 C13.7371648,6.6 12.4130268,7.88921466 12.4130268,9.47685864 C12.4130268,9.70366492 12.4375479,9.92450262 12.4927203,10.1334031 C10.0344828,10.0140314 7.85823755,8.86806283 6.39923372,7.1252356 C6.14789272,7.54900524 6.00076628,8.04439791 6.00076628,8.56963351 C6.00076628,9.56638743 6.52183908,10.4497382 7.31877395,10.9630366 C6.83448276,10.9510995 6.38084291,10.8197906 5.98237548,10.6049215 L5.98237548,10.640733 C5.98237548,12.0373822 7,13.195288 8.35478927,13.4638743 C8.10957854,13.5295288 7.84597701,13.5653403 7.57624521,13.5653403 C7.3862069,13.5653403 7.20229885,13.5474346 7.0183908,13.511623 C7.39233716,14.6575916 8.4835249,15.4872251 9.77701149,15.5110995 C8.76551724,16.2810471 7.49042146,16.7406283 6.10498084,16.7406283 C5.86590038,16.7406283 5.63295019,16.7286911 5.4,16.6988482 C6.69348659,17.5225131 8.25057471,18 9.91800766,18" id="Fill-3" fill="#FFFFFF"></path>
                    </g>
                </g>
            </g>
        </g>
    </g>
</svg>

<svg width="24" height="24" xmlns="http://www.w3.org/2000/svg"><g fill="none" fill-rule="evenodd"><path d="M12 0c6.627 0 12 5.373 12 12s-5.373 12-12 12S0 18.627 0 12 5.373 0 12 0" fill="#1DA1F2"/><path d="M9.918 18c5.438 0 8.41-4.387 8.41-8.189 0-.125 0-.25-.005-.37A5.97 5.97 0 0 0 19.8 7.949a6.127 6.127 0 0 1-1.698.454 2.891 2.891 0 0 0 1.3-1.594 6.085 6.085 0 0 1-1.876.698 2.98 2.98 0 0 0-2.158-.907c-1.63 0-2.955 1.29-2.955 2.877 0 .227.025.448.08.656a8.463 8.463 0 0 1-6.094-3.008c-.251.424-.398.92-.398 1.445 0 .996.52 1.88 1.318 2.393a2.964 2.964 0 0 1-1.337-.358v.036c0 1.396 1.018 2.554 2.373 2.823a3.022 3.022 0 0 1-1.337.048c.374 1.146 1.466 1.975 2.759 2A6.045 6.045 0 0 1 5.4 16.698 8.397 8.397 0 0 0 9.918 18" fill="#FFF"/></g></svg>
